X:83
T:Waterloo Dance,The. JGi.083
O:Tealby,Lincolnshire
M:2/4
L:1/8
Q:1/4=90
S:Joshua Gibbons MS,1823,Tealby,Lincs.
R:quick step
C:Clarinet
Z:VMP/R.Greig, 2009
K:C
G/F/|Ec/A/ Ge//d/|ccc B/c/|dd c/B/A/G/|c/d/e/c/ GG/F/|
Ec/A/ Ge/c/|ccc B/c/|dd c/B/A/G/|c2c:|
|:B/c/|dd/B/ gg/e/|dd/B/ GG|F/G/A/B/ c/A/d/c/|c2 BB/c/|
dd/B/ gg/f/|dd/B/ GG|F/G/A/B/ c/B/G/E/|G2G|
|e/f/|g3e|agfe|dd d/c/d/e/|
cdefg3e|agfe|dd d/c/d/e/|cec|]

